X:1
T:Hull New, 88.88.88
T:Hull New, 88.88.88
T:Edmund Ireland, 1699
T:Public Domain Courtesy of the Cyber Hymnal™
C:Edmund Ireland, 1699
Z:Public Domain
Z:Courtesy of the Cyber Hymnal™
%%score ( 1 2 ) ( 3 4 )
L:1/8
Q:1/4=110
M:4/4
K:D
V:1 treble 
V:2 treble 
V:3 bass 
V:4 bass 
V:1
 D2 | [EA]2 [DF]2 [DG]2 [DA]2 | [DB]2 [DB]2 [DA]2 [CA]2 | [DB]2 [Ec]2 [Dd]2 [DF]2 | %4
 [DB]2 [CE]2 D2 D2 | [EA]2 [DF]2 [DG]2 [DA]2 | [DB]2 [GB]2 [EA]2 [FA]2 | [FB]2 [Ec]2 [Dd]2 [DF]2 | %8
 B2 z D2 [DA]2 x | [Dd]2 [EB]2 [Ee]2 [FA]2 | [FB]2 B2 [CA]2 [EB]2 | [FA]2 [EG]2 [DF]2 d2 | %12
 [DF]2 [CE]2 D2 x |] %13
V:2
 D2 | x8 | x8 | x8 | x4 D2 D2 | x8 | x8 | x8 | D3 (E2 C) D2 | x8 | x2 (ED) x4 | x6 (DE) | %12
 x4 D2 x |] %13
V:3
 [D,F,]2 | [C,A,]2 [D,A,]2 [B,,G,]2 [A,,F,]2 | [G,,G,]2 [B,,G,]2 [D,F,]2 [E,G,]2 | %3
 [D,F,]2 [C,E,]2 [B,,F,]2 [A,,F,]2 | (E,F,) [A,,G,]2 [D,F,]2 [D,F,]2 | %5
 [C,A,]2 [D,A,]2 [E,D]2 [F,=C]2 | [G,B,]2 [E,G,]2 [C,A,]2 [D,F,]2 | %7
 [D,^G,]2 [C,^A,]2 [B,,B,]2 [^A,,B,]2 | [G,,E,]2 [A,,G,]2 [D,F,]2 [D,F,]2 | %9
 [B,,F,]2 [E,^G,]2 [C,A,]2 [F,C]2 | [D,B,]2 [E,^G,]2 [A,,A,]2 [=G,C]2 | [F,D]2 (DC) [B,D]2 (F,G,) | %12
 A,3 z G, [D,F,]2 |] %13
V:4
 x2 | x8 | x8 | x8 | G,,2 x6 | x8 | x8 | x8 | x8 | x8 | x8 | x2 A,2 x B,,2 x | A,,2 A,,2 x3 |] %13

